X:1
T:The Froggy He
M:3/4
L:1/4
K:F
 A A F| A G E| G F2-| F F F| D F F| C F E| E E A| G E G| F A c| c G B|\
 A c d| c A B| A F G| F3|
